X: 19
T: The Protestant Boys
M: 6/8
L: 1/8
B: "O'Neill's 19"
N: "With spirit" "collected by J. O'Neill"
Z: "Transcribed by Norbert Paap, norbertp@bdu.uva.nl"
K:G
D | GAG BcB | AFA c2 e | dBG GcB | AGF G2 D |
GAG BcB | AFA c2 e | dBG c2 B | AGF G2 ||
d | g2-d e2-d | g2-d e2-d | def gfe | dcB A2 g |
edc Bcd | dcB ABc | dBG c2 B | AGF G2 ||


